X:1
T: The Birks of Aberfeldy
C:
R:Reel
Q: 232
K:F
M:4/4
L:1/8
|:F3/2G1/2 Ac f2 fc|f2 fd e1/2f1/2g f1/2g1/2a|F3/2G1/2 Ac f3/2g1/2 ag|fd cA G2 dc|
F3/2G1/2 Ac f2 fc|f2 fd e1/2f1/2g f1/2g1/2a|F3/2G1/2 Ac f3/2g1/2 ag|fd cA G2 dc|
F3/2G1/2 Af cF AF|cF Ac d1/2c1/2B1/2A1/2 GA|FG Ac f3/2g1/2 ag|fd cA G2 d2|
F3/2G1/2 Af cF AF|cF Ac d1/2c1/2B1/2A1/2 GA|F3/2G1/2 Ac f3/2g1/2 ag|fd cA G2 d2:|
